usr/share/icons/biglinux-icons-material/scalable/apps/kwrite.svg

<?xml version="1.0" encoding="UTF-8" standalone="no"?>
<svg
   width="24"
   height="24"
   viewBox="0 0 6.349875 6.349875"
   version="1.1"
   id="svg2"
   sodipodi:docname="org.kde.kwrite.svg"
   inkscape:version="1.3 (0e150ed6c4, 2023-07-21)"
   xmlns:inkscape="http://www.inkscape.org/namespaces/inkscape"
   xmlns:sodipodi="http://sodipodi.sourceforge.net/DTD/sodipodi-0.dtd"
   xmlns="http://www.w3.org/2000/svg"
   xmlns:svg="http://www.w3.org/2000/svg">
  <defs
     id="defs2">
    <radialGradient
       fx="0"
       fy="0"
       cx="0"
       cy="0"
       r="1"
       gradientUnits="userSpaceOnUse"
       gradientTransform="matrix(0,5.8207184,-5.8207184,0,3.1748178,0.26456873)"
       spreadMethod="pad"
       id="radialGradient2-2">
      <stop
         style="stop-color:#c7c7ff;stop-opacity:1;"
         offset="0"
         id="stop1-7" />
      <stop
         style="stop-color:#8380c7;stop-opacity:1;"
         offset="1"
         id="stop2-0" />
    </radialGradient>
    <clipPath
       clipPathUnits="userSpaceOnUse"
       id="clipPath11-9">
      <path
         d="M 0,0 H 19 V 19 H 0 Z"
         id="path11-3" />
    </clipPath>
  </defs>
  <sodipodi:namedview
     id="namedview2"
     pagecolor="#ffffff"
     bordercolor="#000000"
     borderopacity="0.25"
     inkscape:showpageshadow="2"
     inkscape:pageopacity="0.0"
     inkscape:pagecheckerboard="0"
     inkscape:deskcolor="#d1d1d1"
     inkscape:zoom="12.671875"
     inkscape:cx="17.795314"
     inkscape:cy="18.584464"
     inkscape:window-width="2560"
     inkscape:window-height="998"
     inkscape:window-x="0"
     inkscape:window-y="0"
     inkscape:window-maximized="1"
     inkscape:current-layer="svg2" />
  <path
     id="path2-2"
     d="m 2.5380664,0.29490701 c 0.031749,0 0.062088,-0.004233 0.091015,-0.0123471 0.3802868,-0.0250467 0.760574,-0.0236357 1.1398025,0.002822 0.3443042,0.0275161 0.6776727,0.10195079 1.000458,0.22436225 0.5358588,0.22048175 0.9023878,0.60359084 1.1009976,1.14791624 0.1114758,0.3280768 0.1788549,0.6656785 0.1996684,1.011394 0.027516,0.4356718 0.017991,0.8695799 -0.030338,1.303841 C 6.0026285,4.2773367 5.9239607,4.569431 5.8026074,4.8505894 5.5778925,5.3384715 5.2127747,5.6746619 4.7086653,5.8591612 4.3005094,5.9970945 3.8803593,6.0701181 3.4475095,6.0771736 2.9624497,6.1032795 2.4816231,6.065884 2.0050296,5.9681674 1.1298054,5.7737906 0.58830212,5.2393428 0.38440049,4.3655296 0.29761887,3.9728957 0.257403,3.5746172 0.2658695,3.1721058 0.25634468,2.7449002 0.30149944,2.3219281 0.40239181,1.9056586 0.61722924,1.0900524 1.1354497,0.58417908 1.9567002,0.38874406 2.1482547,0.34182555 2.3426313,0.31007618 2.5380664,0.29490701 Z"
     style="fill:url(#radialGradient2-2);fill-rule:evenodd;stroke:none;stroke-width:0.35277" />
  <path
     d="m 5.3518287,2.0858009 0.34554,0.34554 c 0.095385,0.095385 0.095385,0.2498472 0,0.34554 L 3.6247442,4.8488901 2.7613557,5.0211987 2.9339718,4.1581179 5.0062886,2.0858009 a 0.2436934,0.2436934 0 0 1 0.3455401,0 z"
     fill="#f9f9f9"
     style="stroke-width:0.999997;paint-order:stroke fill markers"
     id="path3" />
  <path
     d="M 2.1102763,1.358413 V 1.6839529 H 1.5404276 v 0.081539 H 2.1102763 V 2.2538016 H 1.5404276 v 0.081539 H 2.1102763 V 2.8236503 H 1.5404276 v 0.081539 H 2.1102763 V 3.393499 H 1.5404276 V 3.475038 H 2.1102763 V 3.9633477 H 1.5404276 v 0.081539 h 0.5698487 v 0.48831 H 1.5404276 v 0.081539 H 2.1102763 V 4.9402752 H 2.191507 V 4.615043 H 2.8432021 L 2.8595101,4.533812 H 2.1918143 V 4.0451942 H 3.0478181 L 3.129357,3.9636554 H 2.1915067 V 3.4750379 H 3.6173593 L 3.698898,3.393499 H 2.1918143 V 2.9051892 h 1.9957014 l 0.081539,-0.081539 H 2.1918143 V 2.3353405 h 2.5652425 l 0.039385,-0.039385 V 2.2538016 H 2.1918143 V 1.7657995 H 4.7967492 V 1.6842606 H 2.1918143 V 1.358413 Z m 2.4003181,2.6049347 -0.081231,0.081539 h 0.3673859 v -0.081539 z m -0.5698489,0.5698488 -0.081231,0.081539 h 0.9372346 v -0.081231 z"
     fill="#ffffff"
     opacity="0.15"
     style="stroke-width:0.999997;paint-order:stroke fill markers"
     id="path4" />
</svg>

<svg xmlns="http://www.w3.org/2000/svg" width="24" height="24" viewBox="0 0 6.35 6.35"><defs><radialGradient id="a" cx="0" cy="0" r="1" fx="0" fy="0" gradientTransform="rotate(90 1.455 1.72) scale(5.82072)" gradientUnits="userSpaceOnUse" spreadMethod="pad"><stop offset="0" style="stop-color:#c7c7ff;stop-opacity:1"/><stop offset="1" style="stop-color:#8380c7;stop-opacity:1"/></radialGradient></defs><path d="M2.538.295A.335.335 0 0 0 2.63.283c.38-.025.76-.024 1.14.002a3.62 3.62 0 0 1 1 .225c.536.22.903.603 1.101 1.148.112.328.18.665.2 1.011.028.436.018.87-.03 1.304a3.166 3.166 0 0 1-.237.878c-.225.487-.59.824-1.094 1.008a4.125 4.125 0 0 1-1.261.218 5.644 5.644 0 0 1-1.443-.109C1.13 5.774.588 5.24.385 4.366a5.025 5.025 0 0 1-.12-1.194c-.009-.427.036-.85.137-1.266C.617 1.09 1.135.584 1.957.389c.191-.047.386-.079.581-.094Z" style="fill:url(#a);fill-rule:evenodd;stroke:none;stroke-width:.35277"/><path fill="#f9f9f9" d="m5.352 2.086.345.345a.244.244 0 0 1 0 .346L3.625 4.849l-.864.172.173-.863 2.072-2.072a.244.244 0 0 1 .346 0z" style="stroke-width:.999997;paint-order:stroke fill markers"/><path fill="#fff" d="M2.11 1.358v.326h-.57v.081h.57v.489h-.57v.081h.57v.489h-.57v.081h.57v.488h-.57v.082h.57v.488h-.57v.082h.57v.488h-.57v.082h.57v.325h.082v-.325h.651l.017-.081h-.668v-.489h.856l.081-.081h-.937v-.489h1.425l.082-.082H2.192v-.488h1.996l.081-.081H2.192v-.489h2.565l.04-.039v-.042H2.191v-.488h2.605v-.082H2.192v-.326Zm2.4 2.605-.08.082h.367v-.082zm-.57.57-.08.082h.937v-.081z" opacity=".15" style="stroke-width:.999997;paint-order:stroke fill markers"/></svg>
